!!!Rep U0333
!!!Isim(Name): Sarı Çüçek Sarardıyı Dağları
!!!Yore(Region): Malatya - Arguvan
!!!Makam: Hüseyni
!!!Arizalar(Accidentals): b-2 
!!!Usul: Varios
**kern	**Dcent
*staff1	*.
*clefG2	*.
*k[b-]	*.
*MX/X	*.
16cc	0
16dd	0
16ee	0
16ee	0
8ee	0
8ee	0
4ee;	0
=1	=1
8ee	0
4ee;	0
8ee	0
4ee;	0
8ee	0
4ee;	0
8ee	0
4ee;	0
=2	=2
!!linebreak:default
16ff	0
16gg	0
8ff	0
16ee	0
16dd;	0
8.dd	0
16a;	0
8.dd	0
16a;	0
=3	=3
16.ddn	0
32gg	0
32ff#	0
16.ee;	0
8.ee;	0
16a	0
=4	=4
24ee	0
24ee	0
24gg	0
8.ee;	0
16a	0
8.ee;	0
16a	0
=5	=5
!!linebreak:default
24ee	0
24ee	0
24gg	0
8.ee;	0
16a	0
4ee;	0
=6	=6
32ee	0
16.dd	0
32ee	0
16.dd	0
32dd	0
32gg	0
16ff	0
16ee	0
16.dd;	0
=7	=7
4dd;	0
4dd;	0
4dd;	0
=8	=8
!!linebreak:default
16dd	0
16dd	0
16gg	0
16ff#	0
16gg	0
16ee	0
16ffn	0
16dd	0
16ee	0
16ee	0
8dd;	0
=9	=9
16dd	0
16dd	0
32dd	0
16.cc;	0
16dd	0
8.cc;	0
16dd	0
8.cc;	0
=10	=10
16dd	0
16b-	50
32cc	0
16.b-;	50
32dd	0
32gg	0
16dd	0
16cc	0
8.b-;	50
=11	=11
!!linebreak:default
16cc	0
8b-;	50
16a	0
8.b-;	50
16a	0
=12	=12
32cc	0
32b-	50
16cc	0
16dd	0
16cc	0
8b-;	50
=13	=13
32cc	0
16.b-	50
32cc	0
16.b-;	50
8cc	0
8.b-;	50
16a	0
8cc	0
16b-	50
8.a;	0
=14	=14
!!linebreak:default
16dd	0
16dd	0
16dd	0
16gg	0
16ff#	0
16ff#	0
16ff#	0
16gg	0
8ee	0
16ffn	0
16dd	0
=15	=15
32dd	0
16.cc	0
32dd	0
16.cc;	0
16dd	0
16cc	0
16dd	0
16cc	0
=16	=16
16dd	0
16cc	0
16dd	0
16b-	50
16cc	0
16b-	50
16cc	0
16b-	50
=17	=17
!!linebreak:default
16dd	0
16dd	0
16cc	0
8.b-;	50
=18	=18
16.b-	50
32cc	0
16.b-	50
32cc	0
16.b-	50
32cc	0
16.b-	50
32cc	0
16.b-	50
32cc	0
16b-	50
8.a;	0
16eeQ	0
16ccQ	0
16ddQ	0
8.eeQ;	0
8.eeQ;	0
16aQ	0
*-	*-
!! Uzun Hava Humdrum Bilgi Bankasi (Uzun Hava Humdrum Database)
!! 
!! Sertan Senturk, Parag Chordia & Erdal Tugcular
!! Georgia Tech Center for Music Technology, 2011
